packages/icons/brands/MaskBlue.svg

<svg viewBox="0 0 120 120" xmlns="http://www.w3.org/2000/svg"><path d="m60 120a60 60 0 1 0 0-120 60 60 0 0 0 0 120z" fill="#1c68f3"/><path clip-rule="evenodd" d="m96 46v20h-62.58a27.21 27.21 0 0 0 50.95 6h11.63v16.8a7.2 7.2 0 0 1 -7.2 7.2h-57.6a7.2 7.2 0 0 1 -7.2-7.2v-42.8zm-18.53 26a21.18 21.18 0 0 1 -35.03 0zm-32.87-21.2a11.2 11.2 0 0 0 -11.09 9.6h6.14a5.2 5.2 0 0 1 9.9 0h6.14a11.2 11.2 0 0 0 -11.09-9.6zm30.8 0a11.2 11.2 0 0 0 -11.09 9.6h6.14a5.2 5.2 0 0 1 9.9 0h6.14a11.2 11.2 0 0 0 -11.09-9.6zm13.4-26.8a7.2 7.2 0 0 1 7.2 7.2v8.8h-72v-8.8a7.2 7.2 0 0 1 7.2-7.2z" fill="#fff" fill-rule="evenodd"/></svg>

<svg xmlns="http://www.w3.org/2000/svg" viewBox="0 0 120 120">
    <path fill="#1C68F3" d="M60 120A60 60 0 1 0 60 0a60 60 0 0 0 0 120z"/>
    <path fill="#fff" fill-rule="evenodd" d="M96 46v20H33.42a27.21 27.21 0 0 0 50.95 6H96v16.8a7.2 7.2 0 0 1-7.2 7.2H31.2a7.2 7.2 0 0 1-7.2-7.2V46h72zM77.47 72a21.18 21.18 0 0 1-35.03 0h35.03zM44.6 50.8a11.2 11.2 0 0 0-11.09 9.6h6.14a5.2 5.2 0 0 1 9.9 0h6.14a11.2 11.2 0 0 0-11.09-9.6zm30.8 0a11.2 11.2 0 0 0-11.09 9.6h6.14a5.2 5.2 0 0 1 9.9 0h6.14a11.2 11.2 0 0 0-11.09-9.6zM88.8 24a7.2 7.2 0 0 1 7.2 7.2V40H24v-8.8a7.2 7.2 0 0 1 7.2-7.2h57.6z" clip-rule="evenodd"/>
</svg>
